dist/img/icons/customers/rocket.svg

<svg width="36" height="36" viewBox="0 0 36 36" fill="none" xmlns="http://www.w3.org/2000/svg">
<g clip-path="url(#clip0)">
<path d="M35.2617 0.00411853C28.2341 -0.121881 20.2196 3.55162 15.1466 9.25012C10.2986 9.34162 5.57815 11.3291 2.10265 14.8046C1.90015 15.0041 1.82815 15.3026 1.91665 15.5726C2.00665 15.8441 2.24065 16.0406 2.52265 16.0811L8.30365 16.9091L7.58965 17.7086C7.32415 18.0056 7.33765 18.4571 7.61965 18.7391L17.2601 28.3796C17.4056 28.5251 17.5976 28.5986 17.7911 28.5986C17.9697 28.5986 18.1481 28.5356 18.2906 28.4081L19.0901 27.6941L19.9181 33.4751C19.9587 33.7571 20.1807 33.9641 20.4492 34.0541C20.5182 34.0766 20.5901 34.0871 20.6637 34.0871C20.8766 34.0871 21.0942 33.9941 21.2442 33.8456C24.6716 30.4181 26.6591 25.6976 26.7507 20.8496C32.4552 15.7661 36.1586 7.75462 35.9952 0.736119C35.9846 0.337119 35.6622 0.0146185 35.2617 0.00411853ZM28.3496 12.9521C27.6192 13.6826 26.6591 14.0486 25.6976 14.0486C24.7362 14.0486 23.7761 13.6826 23.0457 12.9521C21.5847 11.4896 21.5847 9.11062 23.0457 7.64812C24.5082 6.18562 26.8871 6.18562 28.3496 7.64812C29.8121 9.11062 29.8121 11.4911 28.3496 12.9521Z" fill="#3E80FE"/>
<path d="M4.08645 25.357C2.48145 26.962 0.277952 34.2131 0.0319523 35.0336C-0.0475477 35.2976 0.0259523 35.5841 0.219452 35.7791C0.363452 35.9231 0.553952 35.9996 0.750452 35.9996C0.822452 35.9996 0.894452 35.9891 0.966452 35.9681C1.78695 35.7221 9.03795 33.5186 10.643 31.9135C12.4505 30.106 12.4505 27.1645 10.643 25.357C8.83395 23.5495 5.89395 23.551 4.08645 25.357Z" fill="#3E80FE"/>
</g>
<defs>
<clipPath id="clip0">
<rect width="36" height="36" fill="white"/>
</clipPath>
</defs>
</svg>

<svg width="36" height="36" fill="none" xmlns="http://www.w3.org/2000/svg"><g clip-path="url(#clip0)" fill="#3E80FE"><path d="M35.262.004C28.234-.122 20.22 3.552 15.147 9.25a19.034 19.034 0 00-13.044 5.555.751.751 0 00.42 1.276l5.78.828-.713.8a.75.75 0 00.03 1.03l9.64 9.64a.748.748 0 001.03.03l.8-.715.828 5.781c.04.282.263.49.531.58.07.022.141.032.215.032.213 0 .43-.093.58-.241 3.428-3.428 5.415-8.148 5.507-12.996 5.704-5.084 9.408-13.095 9.244-20.114a.754.754 0 00-.733-.732zM28.35 12.952a3.738 3.738 0 01-2.652 1.097 3.738 3.738 0 01-2.652-1.097 3.757 3.757 0 010-5.304 3.754 3.754 0 015.304 0 3.754 3.754 0 010 5.304zM4.086 25.357C2.481 26.962.278 34.213.032 35.034a.752.752 0 00.934.934c.821-.246 8.072-2.45 9.677-4.055a4.642 4.642 0 000-6.556 4.643 4.643 0 00-6.557 0z"/></g><defs><clipPath id="clip0"><path fill="#fff" d="M0 0h36v36H0z"/></clipPath></defs></svg>
